!!!OTL: 516. Morgenwanderung.
!!!COM: Volksweise
!!!ARE: Europa, Mitteleuropa, Deutschland
!!!SCT: B0516
!!!TXL: @@DE
!!!YEM: Copyright 1995, estate of Helmut Schaffrath.
**kern	**text
*ICvox	*
*Ivox	*
*clefG2	*
*M6/8	*
*k[b-e-]	*
*B-:	*
!LO:TX:a:t=Mäßig ſchnell.	!
{8f	Wer
=1	=1
4g	recht
8d	in
4f	Freu-
8d	-den
=2	=2
4b-	wandern
8g	.
4f}	will,
{8f	der
=3	=3
4b-	geh'
8f	der
4b-	Sonn'
8cc	ent-
=4	=4
4.dd	-ge-
8cc	-gen;
8r}	.
{8f	da
=5	=5
4g	iſt
8d	der
4f	Wald
8d	ſo
=6	=6
4b-	kir-
8g	-chen-
4f}	-ſtill,
{8f	kein
=7	=7
4b-	Lüft-
8f	-chen
4b-	mag
8cc	ſich
=8	=8
4.dd	re-
8cc	-gen.
8r	.
8r}	.
=9	=9
{4cc	Noch
8b-	ſind
4a	nicht
8b-	die
=10	=10
8ccL	Ler-
8ddJ	.
8b-	-chen
4.a}	wach;
=11	=11
{4cc	nur
8cc	im
4dd	ho-
8cc	-hen
=12	=12
8b-L	Gras
8ccJ	.
8dd	der
4cc;}	Bach
{8b-	ſingt
=13	=13
4.b-	lei-
8f	-ſe,
8r	.
8dd	ſingt
=14	=14
4.dd	lei-
8b-	-ſe,
8r}	.
{8dd	fingt
=15	=15
8.ff	lei-
16ee-	-ſe
8dd	den
8ccL	Mor-
8b-J	.
8cc	-gen-
=16	=16
(4.dd	-ſe
4.cc)	.
=17	=17
[4.b-	gen.
8b-]	.
8r}	.
==	==
!!!AGN: Wander - Lied
!!!GTL: Wanderlieder
!!!ONB: ESAC (Essen Associative Code) Database: BOEHME
!!!AMT: compound duple
!!!AIN: vox
!!!EED: Helmut Schaffrath
!!!EEV: 1.0
!!@@COMMENT:"Gedicht von Em. Geibel 1839. Die Volksmel. ſchon 1855 in Schweiʒerliederheften dem
!!Texte untergelegt. Hier nach Schäublin, "Lieder für Jung und Alr. 2. Aufl. Baſel 1857."
!!@@END:
!!!Text: E. Geibel
!!!URL-scan: https://archive.org/details/BoehmeVtLieder1895/page/n411/mode/2up
!!!ENC: Anna Maria Matuszewska
!!!EEV: 2024/11/07
*-	*-
